images/logo-rc.svg

<svg width="210" height="73" viewBox="0 0 210 73" fill="none" xmlns="http://www.w3.org/2000/svg">
<g clip-path="url(#clip0_71_965)">
<path d="M77.7473 37.2302C77.0574 37.2302 76.4106 36.9296 75.9362 36.3284C75.2032 35.3408 75.4188 33.9237 76.3674 33.1937C82.3182 28.7708 91.4598 26.1084 100.774 26.1084C110.045 26.1084 119.144 28.7708 125.094 33.1937C126.086 33.9237 126.302 35.3408 125.526 36.3284C124.792 37.316 123.369 37.5308 122.378 36.7578C118.367 33.7519 110.563 30.5743 100.731 30.5743C90.8561 30.5743 83.0512 33.7949 79.0409 36.7578C78.696 37.1013 78.2216 37.2302 77.7473 37.2302Z" fill="#E2001A"/>
<path d="M79.8174 41.0516C79.3862 41.0516 78.9119 40.8798 78.61 40.4933C78.0926 39.8492 78.1788 38.8616 78.8257 38.3463C83.9571 34.138 92.1932 31.6045 100.774 31.6045C109.355 31.6045 117.505 34.138 122.68 38.3463C123.327 38.8616 123.456 39.8492 122.895 40.4933C122.378 41.1374 121.386 41.2233 120.739 40.708C116.125 36.9292 108.666 34.6533 100.774 34.6533C92.9694 34.6533 85.2938 36.9721 80.7661 40.708C80.5074 40.9227 80.1624 41.0516 79.8174 41.0516Z" fill="#E2001A"/>
<path d="M67.7863 8.88867C66.8807 8.88867 65.9752 9.14632 65.199 9.61867C64.0347 10.3057 63.1723 11.4222 62.8274 12.7534C62.4824 14.0846 62.698 15.4587 63.3879 16.6181C64.2935 18.164 65.9752 19.1087 67.7863 19.1516H67.8294C68.7349 19.1516 69.6405 18.894 70.4598 18.4216C71.6241 17.7346 72.4865 16.6181 72.8315 15.2869C73.1764 13.9557 72.9608 12.5816 72.2709 11.4222C71.3222 9.83338 69.5974 8.88867 67.7863 8.88867Z" fill="#E2001A"/>
<path d="M100.774 12.8398C97.928 12.8398 95.6426 15.1587 95.6426 17.9498C95.6426 20.784 97.9711 23.0598 100.774 23.0598C103.62 23.0598 105.905 20.741 105.905 17.9498C105.905 15.1157 103.62 12.8398 100.774 12.8398Z" fill="#E2001A"/>
<path d="M100.774 0C97.928 0 95.6426 2.31882 95.6426 5.11C95.6426 7.94412 97.9711 10.22 100.774 10.22C103.62 10.22 105.905 7.90118 105.905 5.11C105.905 2.31882 103.62 0 100.774 0Z" fill="#E2001A"/>
<path d="M87.1048 14.5996C86.6304 14.5996 86.1992 14.6426 85.7249 14.7714C82.9651 15.5014 81.3697 18.3355 82.1027 21.0837C82.7064 23.2737 84.7331 24.8196 87.0617 24.8626H87.191C87.6222 24.8626 88.0534 24.7767 88.4415 24.6908C89.7783 24.3473 90.8563 23.4884 91.5462 22.2861C92.2362 21.0837 92.4087 19.7096 92.0206 18.3784C91.46 16.1455 89.3902 14.5996 87.1048 14.5996Z" fill="#E2001A"/>
<path d="M74.341 19.9248C73.4354 19.9248 72.5299 20.1825 71.7537 20.6548C70.5894 21.3419 69.727 22.4583 69.382 23.7895C69.0371 25.1207 69.2527 26.4948 69.9426 27.6542C70.8482 29.2001 72.5299 30.1448 74.341 30.1448H74.3841C75.2896 30.1448 76.1952 29.8872 77.0145 29.4148C78.1788 28.7277 79.0412 27.6113 79.3861 26.2801C79.7311 24.9489 79.5155 23.5748 78.8256 22.4154C77.8769 20.9125 76.1521 19.9248 74.341 19.9248Z" fill="#E2001A"/>
<path d="M115.823 14.8143C115.392 14.6855 114.918 14.6426 114.486 14.6426C112.158 14.6426 110.131 16.1885 109.528 18.4214C108.794 21.1267 110.39 23.9608 113.15 24.7338C113.581 24.8626 114.055 24.9055 114.53 24.9055C116.815 24.9055 118.885 23.3596 119.489 21.1267C120.178 18.3785 118.54 15.5443 115.823 14.8143Z" fill="#E2001A"/>
<path d="M119.23 2.40516C118.799 2.27634 118.325 2.2334 117.85 2.2334C115.522 2.2334 113.495 3.77928 112.891 6.01222C112.158 8.71752 113.754 11.5516 116.513 12.3246C116.945 12.4534 117.419 12.4963 117.85 12.4963C120.179 12.4963 122.205 10.9505 122.809 8.71752C123.585 5.96928 121.947 3.1781 119.23 2.40516Z" fill="#E2001A"/>
<path d="M129.795 20.6548C129.019 20.1825 128.113 19.9248 127.164 19.9248C125.353 19.9248 123.672 20.8695 122.723 22.4583C122.033 23.6177 121.817 25.0348 122.162 26.323C122.507 27.6542 123.327 28.7707 124.534 29.4577C125.31 29.9301 126.216 30.1877 127.164 30.1877C128.975 30.1877 130.657 29.243 131.606 27.6542C132.296 26.4948 132.511 25.0777 132.166 23.7895C131.821 22.4583 131.002 21.3419 129.795 20.6548Z" fill="#E2001A"/>
<path d="M138.721 12.7534C138.376 11.4222 137.556 10.3057 136.349 9.61867C135.573 9.14632 134.667 8.88867 133.719 8.88867C131.907 8.88867 130.226 9.83338 129.277 11.4222C128.587 12.5816 128.372 13.9987 128.717 15.2869C129.061 16.6181 129.881 17.7346 131.088 18.4216C131.864 18.894 132.77 19.1516 133.719 19.1516C135.53 19.1516 137.211 18.2069 138.16 16.6181C138.893 15.4587 139.066 14.0846 138.721 12.7534Z" fill="#E2001A"/>
<path d="M83.698 12.4963C84.1724 12.4963 84.6036 12.4534 85.0348 12.3246C87.7514 11.5946 89.39 8.76046 88.6138 6.01222C88.0101 3.77928 85.9835 2.2334 83.6549 2.2334C83.1806 2.2334 82.7494 2.27634 82.3182 2.40516C79.5584 3.13516 77.9629 5.96928 78.696 8.71752C79.3428 10.9075 81.3695 12.4534 83.698 12.4963Z" fill="#E2001A"/>
<path d="M171.751 69.6939C171.751 71.3256 173.088 72.6568 174.727 72.6568C176.365 72.6568 177.702 71.3256 177.702 69.6939V49.1251C177.702 47.4933 176.365 46.1621 174.727 46.1621C173.088 46.1621 171.751 47.4933 171.751 49.1251V69.6939Z" fill="#E2001A"/>
<path d="M92.5382 66.945C94.0474 66.945 95.2548 68.1473 95.2548 69.6503C95.2548 71.1532 94.0474 72.3556 92.5382 72.3556H82.4047C81.4992 72.3556 80.7661 71.6256 80.7661 70.7238V49.5538C80.7661 47.965 82.0598 46.6768 83.6552 46.6768C85.2507 46.6768 86.5444 47.965 86.5444 49.5538V66.5585C86.5444 66.7303 86.6737 66.9021 86.8893 66.9021L92.5382 66.945Z" fill="#E2001A"/>
<path d="M155.969 48.6957C155.279 47.4933 154.115 46.8492 152.562 46.8492C150.536 46.8492 148.854 48.481 148.854 50.4563V69.9515C148.854 71.4545 150.148 72.6998 151.657 72.6998C153.166 72.6998 154.46 71.4545 154.46 69.9515V58.0568C154.46 57.971 154.546 57.8851 154.632 57.8851L154.762 57.971L161.877 70.5098C162.48 71.6263 163.688 72.3563 165.068 72.3563C167.094 72.3563 168.69 70.7245 168.69 68.7492V48.9533C168.69 47.4504 167.439 46.2051 165.93 46.2051C164.421 46.2051 163.17 47.4504 163.17 48.9533V60.848L162.998 61.0198L162.868 60.9339L155.969 48.6957Z" fill="#E2001A"/>
<path d="M187.922 48.6957C187.232 47.4933 186.068 46.8492 184.516 46.8492C182.489 46.8492 180.807 48.481 180.807 50.4563V69.9515C180.807 71.4545 182.101 72.6998 183.61 72.6998C185.119 72.6998 186.413 71.4545 186.413 69.9515V58.0568C186.413 57.971 186.499 57.8851 186.585 57.8851L186.715 57.971L193.83 70.5098C194.433 71.6263 195.641 72.3563 197.021 72.3563C199.047 72.3563 200.643 70.7245 200.643 68.7492V48.9533C200.643 47.4504 199.392 46.2051 197.883 46.2051C196.374 46.2051 195.123 47.4504 195.123 48.9533V60.848L194.951 61.0198L194.821 60.9339L187.922 48.6957Z" fill="#E2001A"/>
<path d="M52.5215 54.4922C52.6078 54.4922 52.7371 54.4492 52.7802 54.3634L59.1191 47.7075C59.5934 47.1922 60.2833 46.8916 61.0595 46.8916C62.5688 46.8916 63.7761 48.094 63.7761 49.554C63.7761 50.241 63.5174 50.8851 63.0431 51.3575L55.3244 60.2463L55.195 69.6075C55.195 71.1104 53.9876 72.3128 52.4784 72.3128C50.9692 72.3128 49.7618 71.1104 49.7618 69.6075L49.6324 60.2463L41.9137 51.3575C41.4825 50.8851 41.1807 50.241 41.1807 49.554C41.1807 48.094 42.3881 46.8916 43.8542 46.8916C44.6304 46.8916 45.3203 47.1922 45.7946 47.7075L52.1334 54.3634C52.3059 54.4492 52.3922 54.4922 52.5215 54.4922Z" fill="#E2001A"/>
<path d="M30.7455 52.8175C26.9508 52.8175 23.8461 55.9093 23.8461 59.6881C23.8461 63.4669 26.9508 66.5587 30.7455 66.5587C34.5401 66.5587 37.6448 63.4669 37.6448 59.6881C37.6448 55.9093 34.5401 52.8175 30.7455 52.8175ZM43.5524 59.6881C43.5524 66.7305 37.8173 72.4416 30.7455 72.4416C23.6736 72.4416 17.9385 66.7305 17.9385 59.6881C17.9385 52.6457 23.6736 46.9346 30.7455 46.9346C37.8173 46.9346 43.5524 52.6457 43.5524 59.6881Z" fill="#E2001A"/>
<path d="M132.468 57.5409V61.7491H135.099C135.228 61.7491 135.357 61.6633 135.357 61.4915L135.314 61.3627L132.468 57.5409ZM146.914 67.9756C147.259 68.448 147.474 69.0062 147.474 69.6503C147.474 71.1533 146.224 72.3986 144.715 72.3986C143.809 72.3986 142.99 71.9691 142.515 71.2821L139.54 67.3315H132.511L132.468 69.6074C132.468 71.1533 131.045 72.3986 129.493 72.3986C127.94 72.3986 126.69 71.1533 126.69 69.6074V49.1244C126.69 47.4927 127.984 46.7197 129.622 46.7197C130.528 46.7197 131.304 47.1062 131.864 47.7503L146.914 67.9756Z" fill="#E2001A"/>
<path d="M68.6058 61.3626L68.5627 61.4914C68.5627 61.6203 68.6489 61.7061 68.8214 61.7061H71.4518V57.5408L68.6058 61.3626ZM72.0986 47.6644C72.6161 47.0632 73.4354 46.6338 74.3409 46.6338C75.9795 46.6338 77.2732 47.922 77.2732 49.5538V69.5644C77.2732 71.1103 76.0227 72.3556 74.4703 72.3556C72.9179 72.3556 71.4949 71.1103 71.4949 69.5644L71.4518 67.2885H64.4231L61.4477 71.2391C60.9302 71.9261 60.1541 72.3556 59.2485 72.3556C57.7393 72.3556 56.4888 71.1103 56.4888 69.6073C56.4888 68.9632 56.7044 68.405 57.0493 67.9326L72.0986 47.6644Z" fill="#E2001A"/>
<path d="M102.887 59.7743C102.887 67.7184 109.614 72.442 114.961 72.442C118.626 72.442 122.464 70.8102 124.577 68.3626C124.965 67.8902 125.224 67.289 125.224 66.6449C125.224 65.142 124.017 63.9396 122.507 63.9396C122.076 63.9396 121.645 64.0685 121.257 64.2402L119.015 65.7432C117.98 66.4302 116.729 66.8167 115.392 66.8167C111.598 66.8167 108.622 63.682 108.622 59.7743C108.622 55.9096 111.641 52.732 115.392 52.732C116.729 52.732 117.98 53.1185 119.015 53.8055L121.171 55.2226C121.559 55.3943 121.947 55.5232 122.421 55.5232C123.93 55.5232 125.138 54.3208 125.138 52.8179C125.138 52.1737 124.879 51.5726 124.491 51.1002C122.378 48.6096 119.316 47.1067 115.651 47.1067C108.579 47.0637 102.887 52.7749 102.887 59.7743Z" fill="#E2001A"/>
<path d="M8.62399 52.7313C6.98538 52.7313 5.64863 53.9766 5.64863 55.4795C5.64863 56.9825 6.98538 58.2278 8.62399 58.2278C10.2626 58.2278 11.5993 56.9825 11.5993 55.4795C11.5993 53.9337 10.2626 52.7313 8.62399 52.7313ZM0.344727 55.6084C0.344727 53.1607 0.905299 50.8848 2.67327 49.2101C4.18251 47.7931 6.16608 46.8484 8.92583 47.0201C13.8416 47.3207 17.162 50.8848 17.162 55.6084C17.162 58.4425 15.5665 60.976 13.4967 62.0495L17.6794 68.6625C17.8519 69.006 17.9813 69.4354 17.9813 69.8648C17.9813 71.2819 16.6445 72.4842 15.2215 72.4842C14.5316 72.4842 13.8848 72.2266 13.4104 71.7542L6.72666 62.6937L6.59729 62.6507C6.42481 62.6507 6.29545 62.7795 6.29545 62.9513L6.2092 69.736C6.2092 71.2389 5.00181 72.4413 3.49257 72.4413C1.98333 72.4413 0.775938 71.2389 0.775938 69.736L0.344727 55.6084Z" fill="#E2001A"/>
<path d="M206.766 48.8674C207.025 48.8674 207.197 48.7815 207.197 48.5238C207.197 48.2233 207.025 48.1374 206.766 48.1374H206.162V48.8674H206.766ZM206.162 50.4133C206.162 50.628 206.076 50.7997 205.774 50.7997C205.472 50.7997 205.429 50.6709 205.429 50.4133V47.8797C205.429 47.708 205.472 47.5362 205.817 47.5362H206.723C207.37 47.5362 207.93 47.7509 207.93 48.4809C207.93 49.0391 207.628 49.3397 207.111 49.3827L207.672 50.3274L207.715 50.4991C207.715 50.6709 207.585 50.7997 207.327 50.7997C207.068 50.7997 206.982 50.585 206.895 50.4133L206.378 49.4686H206.119V50.4133H206.162ZM206.637 51.4009C207.887 51.4009 208.922 50.3703 208.922 49.125C208.922 47.8797 207.93 46.8491 206.637 46.8491C205.386 46.8491 204.351 47.8797 204.351 49.125C204.394 50.3703 205.386 51.4009 206.637 51.4009ZM206.637 46.1191C208.275 46.1191 209.655 47.4503 209.655 49.125C209.655 50.7568 208.318 52.1309 206.637 52.1309C204.998 52.1309 203.618 50.7997 203.618 49.125C203.618 47.4933 204.998 46.1191 206.637 46.1191Z" fill="#E2001A"/>
</g>
<defs>
<clipPath id="clip0_71_965">
<rect width="210" height="73" fill="white"/>
</clipPath>
</defs>
</svg>

<svg width="210" height="73" fill="none" xmlns="http://www.w3.org/2000/svg"><g clip-path="url(#clip0_71_965)" fill="#E2001A"><path d="M77.747 37.23c-.69 0-1.336-.3-1.81-.902a2.28 2.28 0 01.43-3.134c5.951-4.423 15.093-7.086 24.407-7.086 9.271 0 18.37 2.663 24.32 7.086a2.203 2.203 0 01.432 3.134 2.225 2.225 0 01-3.148.43c-4.011-3.006-11.815-6.184-21.647-6.184-9.875 0-17.68 3.22-21.69 6.184-.345.343-.82.472-1.294.472z"/><path d="M79.817 41.052c-.43 0-.905-.172-1.207-.559-.517-.644-.431-1.631.216-2.147 5.131-4.208 13.367-6.741 21.948-6.741s16.731 2.533 21.906 6.741c.647.516.776 1.503.215 2.147-.517.644-1.509.73-2.156.215-4.614-3.779-12.073-6.055-19.965-6.055-7.805 0-15.48 2.32-20.008 6.055a1.51 1.51 0 01-.949.344zM67.786 8.889a5.01 5.01 0 00-2.587.73 5.138 5.138 0 00-2.372 3.134 5.043 5.043 0 00.56 3.865c.906 1.546 2.588 2.49 4.4 2.534h.042a5.28 5.28 0 002.63-.73 5.138 5.138 0 002.373-3.135 5.044 5.044 0 00-.561-3.865 5.231 5.231 0 00-4.485-2.533zm32.988 3.951c-2.846 0-5.131 2.319-5.131 5.11 0 2.834 2.328 5.11 5.131 5.11 2.846 0 5.131-2.319 5.131-5.11a5.105 5.105 0 00-5.131-5.11zm0-12.84c-2.846 0-5.131 2.319-5.131 5.11 0 2.834 2.328 5.11 5.131 5.11 2.846 0 5.131-2.319 5.131-5.11 0-2.791-2.285-5.11-5.131-5.11zM87.105 14.6c-.475 0-.906.043-1.38.171-2.76.73-4.355 3.564-3.622 6.313.603 2.19 2.63 3.736 4.959 3.779h.129c.431 0 .862-.086 1.25-.172 1.337-.344 2.415-1.203 3.105-2.405a4.96 4.96 0 00.475-3.908c-.561-2.233-2.63-3.778-4.916-3.778zm-12.764 5.325c-.906 0-1.811.258-2.587.73a5.138 5.138 0 00-2.372 3.134 5.044 5.044 0 00.56 3.865c.906 1.546 2.588 2.49 4.399 2.49h.043c.906 0 1.811-.257 2.63-.73a5.138 5.138 0 002.372-3.134 5.043 5.043 0 00-.56-3.865c-.95-1.502-2.674-2.49-4.485-2.49zm41.482-5.111a4.76 4.76 0 00-1.337-.171 5.12 5.12 0 00-4.958 3.778c-.734 2.706.862 5.54 3.622 6.313.431.129.905.171 1.38.171 2.285 0 4.355-1.545 4.959-3.778.689-2.748-.949-5.583-3.666-6.313zm3.407-12.409c-.431-.129-.905-.172-1.38-.172a5.122 5.122 0 00-4.959 3.78c-.733 2.705.863 5.539 3.622 6.312a4.77 4.77 0 001.337.171 5.121 5.121 0 004.959-3.778c.776-2.749-.862-5.54-3.579-6.313zm10.565 18.25a5.05 5.05 0 00-2.631-.73 5.16 5.16 0 00-4.441 2.533c-.69 1.16-.906 2.577-.561 3.865.345 1.331 1.165 2.448 2.372 3.135.776.472 1.682.73 2.63.73a5.162 5.162 0 004.442-2.534c.69-1.16.905-2.576.56-3.864-.345-1.332-1.164-2.448-2.371-3.135zm8.926-7.902c-.345-1.33-1.165-2.447-2.372-3.134a5.049 5.049 0 00-2.63-.73 5.16 5.16 0 00-4.442 2.533c-.69 1.16-.905 2.577-.56 3.865.344 1.331 1.164 2.448 2.371 3.135.776.472 1.682.73 2.631.73a5.16 5.16 0 004.441-2.534c.733-1.16.906-2.533.561-3.865zm-55.023-.257c.474 0 .906-.043 1.337-.171a5.107 5.107 0 003.579-6.313 5.121 5.121 0 00-4.96-3.779c-.473 0-.905.043-1.336.172-2.76.73-4.355 3.564-3.622 6.313.647 2.19 2.674 3.735 5.002 3.778zm88.053 57.198a2.975 2.975 0 002.976 2.963 2.975 2.975 0 002.975-2.963V49.125a2.975 2.975 0 00-5.951 0v20.569zm-79.213-2.749a2.7 2.7 0 012.717 2.705 2.7 2.7 0 01-2.717 2.706H82.405c-.906 0-1.639-.73-1.639-1.632v-21.17a2.883 2.883 0 012.89-2.877 2.883 2.883 0 012.888 2.877v17.004c0 .172.13.344.345.344l5.65.043zm63.431-18.249c-.69-1.203-1.854-1.847-3.407-1.847-2.026 0-3.708 1.632-3.708 3.607v19.495c0 1.504 1.294 2.749 2.803 2.749s2.803-1.246 2.803-2.749V58.057c0-.086.086-.172.172-.172l.13.086 7.115 12.539c.603 1.116 1.811 1.846 3.191 1.846a3.609 3.609 0 003.622-3.607V48.953c0-1.503-1.251-2.748-2.76-2.748s-2.76 1.245-2.76 2.748v11.895l-.172.172-.13-.086-6.899-12.238zm31.953 0c-.69-1.203-1.854-1.847-3.406-1.847-2.027 0-3.709 1.632-3.709 3.607v19.495c0 1.504 1.294 2.749 2.803 2.749s2.803-1.246 2.803-2.749V58.057c0-.086.086-.172.172-.172l.13.086 7.115 12.539c.603 1.116 1.811 1.846 3.191 1.846a3.609 3.609 0 003.622-3.607V48.953c0-1.503-1.251-2.748-2.76-2.748s-2.76 1.245-2.76 2.748v11.895l-.172.172-.13-.086-6.899-12.238zm-135.4 5.796c.086 0 .215-.043.258-.129l6.34-6.655c.473-.516 1.163-.816 1.94-.816 1.509 0 2.716 1.202 2.716 2.662 0 .687-.259 1.331-.733 1.803l-7.719 8.89-.129 9.36a2.7 2.7 0 01-2.717 2.706 2.7 2.7 0 01-2.716-2.706l-.13-9.36-7.718-8.89c-.431-.472-.733-1.116-.733-1.803 0-1.46 1.207-2.662 2.673-2.662.776 0 1.466.3 1.94.816l6.34 6.655c.172.086.258.13.388.13zm-21.777-1.674c-3.794 0-6.899 3.091-6.899 6.87s3.105 6.87 6.9 6.87c3.794 0 6.899-3.091 6.899-6.87s-3.105-6.87-6.9-6.87zm12.807 6.87c0 7.043-5.735 12.754-12.806 12.754-7.072 0-12.807-5.711-12.807-12.754 0-7.042 5.735-12.753 12.806-12.753 7.072 0 12.807 5.71 12.807 12.753zm88.916-2.148v4.21h2.631c.129 0 .258-.087.258-.258l-.043-.13-2.846-3.821zm14.446 10.436c.345.472.56 1.03.56 1.674 0 1.503-1.25 2.749-2.759 2.749-.906 0-1.725-.43-2.2-1.117l-2.975-3.95h-7.029l-.043 2.275c0 1.546-1.423 2.792-2.975 2.792a2.791 2.791 0 01-2.803-2.792V49.124c0-1.631 1.294-2.404 2.932-2.404.906 0 1.682.386 2.242 1.03l15.05 20.226zm-78.308-6.613l-.043.128c0 .13.086.215.258.215h2.63v-4.165l-2.845 3.822zm3.493-13.699a2.996 2.996 0 012.242-1.03 2.902 2.902 0 012.932 2.92v20.01a2.791 2.791 0 01-2.803 2.792c-1.552 0-2.975-1.246-2.975-2.792l-.043-2.275h-7.029l-2.975 3.95c-.518.687-1.294 1.117-2.2 1.117-1.509 0-2.76-1.246-2.76-2.749 0-.644.216-1.202.561-1.674L72.1 47.664zm30.788 12.11c0 7.944 6.727 12.668 12.074 12.668 3.665 0 7.503-1.632 9.616-4.08.388-.472.647-1.073.647-1.717a2.7 2.7 0 00-2.717-2.705c-.431 0-.862.129-1.25.3l-2.242 1.503a6.53 6.53 0 01-3.623 1.074c-3.794 0-6.77-3.135-6.77-7.043 0-3.864 3.019-7.042 6.77-7.042a6.53 6.53 0 013.623 1.074l2.156 1.417c.388.171.776.3 1.25.3a2.7 2.7 0 002.717-2.705c0-.644-.259-1.245-.647-1.718-2.113-2.49-5.175-3.993-8.84-3.993-7.072-.043-12.764 5.668-12.764 12.667zM8.624 52.731c-1.639 0-2.975 1.246-2.975 2.748 0 1.504 1.336 2.749 2.975 2.749s2.975-1.245 2.975-2.748c0-1.546-1.336-2.749-2.975-2.749zm-8.28 2.877c0-2.447.561-4.723 2.33-6.398 1.509-1.417 3.492-2.362 6.252-2.19 4.916.3 8.236 3.865 8.236 8.588 0 2.835-1.595 5.368-3.665 6.442l4.182 6.612c.173.344.302.773.302 1.203 0 1.417-1.337 2.62-2.76 2.62-.69 0-1.336-.258-1.81-.73l-6.684-9.061-.13-.043a.294.294 0 00-.302.3l-.086 6.785a2.7 2.7 0 01-2.716 2.705 2.7 2.7 0 01-2.717-2.705L.345 55.608zm206.422-6.741c.259 0 .431-.085.431-.343 0-.3-.172-.387-.431-.387h-.604v.73h.604zm-.604 1.546c0 .215-.086.387-.388.387-.302 0-.345-.13-.345-.387V47.88c0-.172.043-.344.388-.344h.906c.647 0 1.207.215 1.207.945 0 .558-.302.859-.819.902l.561.944.043.172c0 .172-.13.3-.388.3-.259 0-.345-.214-.432-.386l-.517-.944h-.259v.944h.043zm.475.988c1.25 0 2.285-1.03 2.285-2.276a2.268 2.268 0 00-2.285-2.276c-1.251 0-2.286 1.03-2.286 2.276.043 1.245 1.035 2.276 2.286 2.276zm0-5.282c1.638 0 3.018 1.331 3.018 3.006a3.021 3.021 0 01-3.018 3.006c-1.639 0-3.019-1.331-3.019-3.006 0-1.632 1.38-3.006 3.019-3.006z"/></g><defs><clipPath id="clip0_71_965"><path fill="#fff" d="M0 0h210v73H0z"/></clipPath></defs></svg>
